X:8
T:My Dancing Day
M:3/4
L:1/4
Z:Kevin Goess 8/15/2004
C:trad.
Q:180
N:Cornish carol from Sandys, Christmas Carols, Ancient and Modern, published 1833 
K:G
%%MIDI gchord fzc
D|"G" G F G | "D" A B "C" c | "G" d c "C" B | "D" A2 B |"Em" G F G | 
w:To-mor-row shall be_ my da-an-cing day: I would my 
"D" A B "C" c | "G" d c "C" B | "D" A2 "G" B/d/|"G" d2 B | "Am" c2 B |
w:true_ love did_ so chance To_ see the le-gend
"D" A "C" G B | "D" A2 D | "G" G2 "D" A | "G" B c d | "Am" c "D" B A | 
w:of_ my play,  To call my true_ love to_ my
 "G" G2 B |"D" A2 "C" B/c/ | "G" d3 | B G B | "D" A2 "G" B | 
w:dance: Sing O my_ love, O_ my love, my 
"D" A2 "G" B | "D" A2 D | "Em" G2 "D" A | "G" B c d | "Am" c "D" B A | "G" G2 |]
w:love, my love; This have I done_ for my_ true love.
W:2
W:Then was I born of a virgin pure,
W:Of her I took fleshly substance; 
W:Thus was I knit to man's nature,
W:To call my true love to my dance:
W:3
W:In a manger laid and wrapped I was,
W:So very poor, this was my chance,
W:Betwixt and ox and a silly poor ass,
W:To call my true love to my dance:
W:4
W:Then afterwards baptized I was
W:The Holy Ghost on me did glance,
W:My Father's voice heard from above,
W:To call my true love to my dance:

